X:1
T:Minuet in B flat major
T:Minuet in B flat
T:D.41
T:Franz Schubert
T:Public Domain
C:Franz Schubert
Z:Public Domain
%%score { ( 1 3 ) | ( 2 4 ) }
L:1/8
M:3/4
K:Bb
V:1 treble nm="Piano"
V:3 treble 
V:2 bass 
V:4 bass 
V:1
!f! f2 | [dfb]4 f>d | [Gg]4!p! e>c | A2 A2 A2 | B>c d2!f! x2 | [dfb]4 f>d | [Gg]4!p! e>c | %7
{B} A2 A2 A2 | B4 ::!f! [dfb]>[dfb] | [cfa]4 [dfb]>[dfb] | [cfa]4 [fbd']>[fbd'] | [fac']2 f>af>a | %13
 [Acf]4 f2 | [dfb]4 f>d | [Gg]4 e>c |{B} A2 AcfA | B4!fine! :|[M:3/4]"^Trio" B>d | f2 f2 (b>g) | %20
 f4 (b>g) | f2 [df]2{gf} [ce][Bd] | [Ac]2 z2 B>d | f2 f2 b>g | f4 b>g | fbd'bc'a | b2 z2 :: f>d | %28
 c2 c2 f>d | c4 f/=e/f/d/ | c2 c2 g/f/_e/d/ | c4 B>d | f2 f2 b>g | f4 b>g | fbd'bc'a | %35
 b2 z2!D.C.! :| %36
V:2
 z2 | B,,2 B,2 z2 | E,,2 E,2 z2 | F,2 F2 E2 | D>C B,2 z2 | B,,2 B,2 z2 | E,,2 E,2 z2 | %7
 [F,CE]2 [F,CE]2 [F,CE]2 | [B,D]2 B,,2 :: B,,>D, | F,2 F,,2 B,,>D, | F,2 F,,2 B,,>D, | %12
 F,2 [F,,F,]2 [F,,F,]2 | [F,,F,]4 z2 | B,,2 B,2 z2 | E,,2 E,2 z2 | [F,CE]2 [F,CE]2 [F,CE]2 | %17
 [B,D]2 B,,2 :|[M:3/4] z2 | B,DFDGE | B,DFDGE | [B,D]2 B,,2 D,2 | F,2 F,,2 z2 | B,DFDGE | B,DFDGE | %25
 B,DFDEC | [B,D]2 B,,2 :: DB, | A,F,A,F,DB, | A,F,A,F, [B,D]F, | [A,C]F,[A,C]F, [B,D]F, | %31
 [A,C]2 F,2 z2 | B,DFDGE | B,DFDGE | B,DFDEC | [B,D]2 B,,2 :| %36
V:3
 x2 | x6 | x6 | x2 x2 F2 | F4 f2 | x6 | x6 | x6 | x4 :: x2 | x6 | x6 | x2 [Ac]2 [Ac]2 | x6 | x6 | %15
 x6 | x6 | x4 :|[M:3/4] x2 | x6 | x6 | x6 | x6 | x6 | x6 | x6 | x4 :: x2 | x6 | x6 | x6 | x6 | x6 | %33
 x6 | x6 | x4 :| %36
V:4
 x2 | x6 | x6 | x6 | x6 | x6 | x6 | x6 | x4 :: x2 | x6 | x6 | x6 | x6 | x6 | x6 | x6 | x4 :| %18
[M:3/4] x2 | B,6 | B,6 | x6 | x6 | B,6 | B,6 | B,2 F,4 | x4 :: x2 | x6 | x6 | x6 | x6 | B,6 | B,6 | %34
 B,2 F,4 | x4 :| %36

